icon-themes/breeze_svg/cmd/lc_verticalcaption.svg

<svg viewBox="0 0 24 24" xmlns="http://www.w3.org/2000/svg"><path d="m17 5v1h1v4h-7v-1h-1v3h1v-1h7v4h-1v1h2v-1-10zm-11.8125 4-.15625.8125-2 10-.03125.1875h2l1.8125-9h1.1875v-2h-.71875-1.15625-.125z" fill="#4d4d4d"/></svg>

<svg xmlns="http://www.w3.org/2000/svg" viewBox="0 0 24 24">
 <path 
     style="fill:#4d4d4d" 
     d="M 17 5 L 17 6 L 18 6 L 18 10 L 11 10 L 11 9 L 10 9 L 10 12 L 11 12 L 11 11 L 18 11 L 18 15 L 17 15 L 17 16 L 19 16 L 19 15 L 19 5 L 17 5 z M 5.1875 9 L 5.03125 9.8125 L 3.03125 19.8125 L 3 20 L 5 20 L 6.8125 11 L 8 11 L 8 9 L 7.28125 9 L 6.125 9 L 6 9 L 5.1875 9 z "
     />
 </svg>
